X:1
T:,,БАЛЬНАЯ ЛЕЗГИНКА.''
T:,,БАЛЬНАЯ ЛЕЗГИНКА.''
T:Новый салонный танецъ.
T:Артиста Императорскиxъ-Московскиxъ театровъ А. А. ЦАРМАНЪ. 
T:НОВЫЙ ТАНЕЦЪ ,,БАЛЬНАЯ ЛЕЗГИНК'' 
T:артиста Моск. ИМПЕРАТОРСКИXЪ театровъ
T:А. А. ЦАРМАНЪ.
T:Автора ,,Pas d' Espagne'' и ,,Tchardache de bal''
T:ПОЛОЖЕНIЕ ТАНЦУЮЩИXЪ.
T:      Въ началѣ танца кавалеръ стоитъ въ III позицiи, имѣя впереди лѣвую ногу, съ лѣвой стороны да- мы, держа передъ лицомъ правую руку, согнутую въ локтѣ, а лѣвая вытянута назадъ.  Корпусъ слегка наклоняется впередъ. Дама-же лѣвую руку кладетъ на правое плечо кавалера, а правая такъ- же, какъ и у кавалера, находится передъ лицомъ. 
T: I Фигура. 
T:Кавалеръ, начиная лѣвой ногой, дѣлаетъ 3 шага впередъ, причемъ во время 3 шага присѣдаетъ; то-же самое повторяется и правой ногой. Затѣмъ дѣлаетъ кругъ на мѣстѣ, лѣвой ногой и въ лѣвую сторону (па тѣ-же самыя) и становится лицомъ къ дамѣ. Дама дѣлаетъ то-же самое, но съ другой ноги и въ обратную сторону. 
T: II Фигура. 
T:        Оставаясь лицомъ къ дамѣ, лѣвая нога кавалера отставляется въ лѣвую сторону, одновременно присѣдая на нее, а правая нога ставится на носокъ сзади лѣвой. Эти движенiя 4 раза; при чемъ въ послѣдний разъ, когда правая нога подставляется къ лѣвой, то тяжесть корпуса опирается на лѣвую ногу. Послѣ этого правая нога выно- сится вправо и ставится на каблукъ. (Въ это время корпусъ сильно наклоняется впра- во и глаза устремлены на носокъ правой ноги). Затѣмъ она заносится за каблукъ лѣ- вой ноги, слегка касаясь носкомъ о полъ. Выпрямляя корпусъ, кавалеръ притоптыва- етъ правой, лѣвой и снова правой ногой. Дама дѣлаетъ то-же, что и кавалеръ, но съ другой ноги. 
T: III Фигура. 
T:     Оставаясь лицомъ къ дамѣ, кавалеръ дѣлаетъ кругомъ дамы па первой фигуры   съ правой ноги въ правую сторону; дама же дѣлаетъ одновременно съ кавалеромъ то-же самое и съ той женоги кругомъ кавалераъ, и становятся какъ въ началѣ танца. 
T: IV Фигура. 
T:     Находясь въ положении 1-й фигуры, кавалеръ и дама дѣлают шагъ правой но- гой вправо, лѣвую заносятъ за правую и присѣдаютъ. Затѣмъ, отставляя лѣвыя ноги влѣво, приставляютъ правые. Послѣ этого лѣвая нога кавалера и правая дамы ставятся на каблукъ, носокъ и при- топтываютъ лѣвой, правой и снова лѣвой ногой. 
T:A. 6  П.
T:A. 6  П.
T:A. 6  П.
C:Артиста Императорскиxъ-Московскиxъ театровъ
Z:A. 6  П.
%%score { 1 | 2 }
L:1/8
Q:1/4=90
M:2/4
K:Eb
V:1 treble nm="Piano" snm="Pno."
V:2 bass 
V:1
"^Maestoso.""^INTRODUCTION." CE F/E/D/C/ | =B,D G z |!pp! [G=Bdg]2 [G_B^cg]2 | %3
 [G=Bdg] z !fermata!z2 ||!mf!"^Allegretto." ce f/e/d/c/ | [G=B]d !>![=Bdg] z | [=Bd]f Pfe/d/ | %7
 [ce]g !>![ceg] z | ce f/e/d/c/ | [G=B]d !>![=Bdg] z | [=Bd]f Pfe/d/ | %11
 [EGc]!>![=Bdfg] !>![cegc'] z ||!mf! FA PcB/A/ | GG !>!G2 | DF PFF/E/ | EG !>!G2 | FA PcB/A/ | %17
 GG !>!G2 | DF PFF/E/ | [EGc]!>![=Bdfg] !>![cegc'] z |: Pa2 Pg2 | (f/e/d/f/) .e/.d/.c/ z/ | %22
!pp! Pa2 Pg2 | (f/e/d/4f/4e/4d/4) c z ::!ff! Pf2 Pe2 | (d/f/e/d/) .e/.d/.c/ z/ |!pp! Pf2 Pe2 | %27
 (d/f/d/4f/4e/4d/4) c z :|!fff! Ac PcB/A/ | GB B2 | FA PAG/F/ | GB B2 | Ac PcB/A/ | GB B2 | %34
 FA PAG/F/ | [G,B,E][egbe'] [egbe'] z ||!ff! Bd fg/f/ | e[gb] [gb]2 | fa Pag/f/ | %39
 g[egbe'] [egbe']2 | Bd Pfg/f/ | e[gb] [gb]2 | fa Pag/f/ | [GBe]!>![dfab] !>![egbe'] z |: %44
!mf! Pa2 Pg2 | (f/e/d/f/) .e/.d/.c/ z/ | Pa2 Pg2 | (f/e/d/4f/4e/4d/4) c z ::!p! Pf2 Pe2 | %49
 (d/f/e/d/) .e/.d/.c/ z/ |!p! Pf2 Pe2 | (d/f/d/4f/4e/4d/4) c z :|!p! G/A/=A/=B/ c z | %53
!p! g/a/=a/=b/ c' z |!pp! c z [cc'] z |!pp! [c'c''] z z2 |] %56
V:2
 [C,,C,][E,,E,] [F,,F,]/[E,,E,]/[D,,D,]/[C,,C,]/ | [=B,,,=B,,][D,,D,] [G,,G,] z | %2
 [G,=B,D]2 [G,^C=E]2 | [G,DF]!>![G,,,G,,] !>![G,,,G,,] !fermata!z || C,[G,CE] C,[G,CE] | %5
 G,,[G,=B,F] [G,B,F] z | G,,[G,=B,F] G,,[G,B,F] | C,[G,CE] [G,CE] z | C,[G,CE] C,[G,CE] | %9
 G,,[G,=B,F] [G,B,F] z | G,,[G,=B,F] G,,[G,B,F] | [C,C][G,,G,] [C,,C,] z || F,[A,CF] F,[A,CF] | %13
 C,[G,CE] [G,CE]2 | =B,,[^G,=B,D] [G,B,D]2 | C,[G,CE] [G,CE]2 | F,[A,CF] F,[A,CF] | %17
 C,[G,CE] [G,CE]2 | F,,[^G,=B,D] F,,[G,B,D] | %19
"_Дозволоко пекзурою Москва 21 Февраля 1901 г." [C,C]!>![G,,G,] [C,,C,] z |: %20
 =B,,[^G,=B,DF] C,[=G,CE] | G,,[G,=B,F] C,[G,CE] | =B,,[^G,=B,DF] C,[=G,CE] | %23
"_Печатня В.Гроссе въ Москвѣ Б. Спасская ул соб. д." G,,[G,=B,D] [C,E,G,C] z :: %24
 F,,[^G,=B,D] G,,[=G,CE] | G,,[G,=B,D] C,[G,CE] | F,,[^G,=B,D] G,,[=G,CE] | %27
 G,,[G,=B,D] [C,E,G,C] z :| A,,[E,A,C] A,,[E,A,C] | [E,,E,][G,B,E] [G,B,E]2 | %30
 B,,[A,B,D] B,,[A,B,D] | [E,,E,][G,B,E] [G,B,E]2 | A,,[E,A,C] A,,[E,A,C] | %33
 [E,,E,][G,B,E] [G,B,E]2 | B,,[A,B,D] B,,[A,B,D] | E,[E,,E,] [E,,E,] z || B,,[A,B,D] B,,[A,B,D] | %37
 E,[E,E][D,D][C,C] | [B,,B,][A,B,D] B,,[A,B,D] | E,[G,B,E] [G,B,E]2 | B,,[A,B,D] B,,[A,B,D] | %41
 E,[E,E][D,D][C,C] | [B,,B,][A,B,D] B,,[A,B,D] | [E,,E,]!>![B,,B,] !>![E,,E,] z |: %44
 =B,,[^G,=B,DF] C,[=G,CE] | G,,[G,=B,F] C,[G,CE] | =B,,[^G,=B,DF] C,[=G,CE] | %47
 G,,[G,=B,D] [C,E,G,C] z :: F,,[^G,=B,D] G,,[=G,CE] | G,,[G,=B,D] C,[G,CE] | %50
"_Имѣющiе большой успѣхъ того же автора танцы и музыка. ,,ПА ДЗ ЗСПАНЬ''-40 к. и ,,БАЛЬНЫЙ ЧАРДАШЪ''\n - 40 к. Па дз патинеръ ,,МОЕ ПРИЗНАНIЕ''-40к. Вальсъ ,,ДЫХАНIЕ ВЕСНЫ''-60 к. и Мазурка ,,ЛИХОЙ\n ГУСАРЪ''-40 к. УкраинскIй Козачекъ.(Гопакъ.) 40 к.\n" F,,[^G,=B,D] G,,[=G,CE] | %51
 G,,[G,=B,D] [C,E,G,C] z :| [G,=B,F][G,B,F] [CEG] z |[K:treble] [G=Bf][GBf] [ceg] z | a z [Aa] z | %55
!8va(! [aa']!8va)! z"^Fine" z2 |] %56

